**harm	**harte	**silbe	**silbe	**rhyme	**timestamp	**phrase	**leadinstrument	**kern
*M4/4	*M4/4	*	*	*	*	*	*	*
*	*	*	*	*	*	*	*	*
*	*	*	*	*	*	*	*	*
*G-:	*G-:	*	*	*	*	*	*	*G-:
*	*	*	*	*	*	*	*	*
*	*	*	*	*	*	*	*	*
1r;	N	.	.	.	0	.	r	1r;
=1	=1	=1	=1	=1	=1	=1	=1	=1
*>Letter>A	*>Letter>A	*>Letter>A	*>Letter>A	*>Letter>A	*>Letter>A	*>Letter>A	*>Letter>A	*>Letter>A
*>Label>Intro	*>Label>Intro	*>Label>Intro	*>Label>Intro	*>Label>Intro	*>Label>Intro	*>Label>Intro	*>Label>Intro	*>Label>Intro
1IV	C-:maj	.	.	.	0.441	newline	synthesizer	1C- 1e- 1g-
=2	=2	=2	=2	=2	=2	=2	=2	=2
1I	G-:maj	.	.	.	2.87	.	synthesizer	1G- 1b- 1dd-
=3	=3	=3	=3	=3	=3	=3	=3	=3
1IV	C-:maj	.	.	.	5.299	.	synthesizer	1C- 1e- 1g-
=4	=4	=4	=4	=4	=4	=4	=4	=4
1I	G-:maj	.	.	.	7.728	.	synthesizer	1G- 1b- 1dd-
=5	=5	=5	=5	=5	=5	=5	=5	=5
1v7b	D-:min11/b3	.	.	.	10.157	newline	synthesizer	1d- 1F- 1a- 1cc-
=6	=6	=6	=6	=6	=6	=6	=6	=6
1I	G-:maj	.	.	.	12.598	.	synthesizer	1G- 1b- 1dd-
=7	=7	=7	=7	=7	=7	=7	=7	=7
1V	D-:maj	.	.	.	15.039	.	synthesizer	1D- 1f 1a-
=8	=8	=8	=8	=8	=8	=8	=8	=8
1V	D-:maj	.	.	.	17.48	.	synthesizer	1D- 1f 1a-
=9	=9	=9	=9	=9	=9	=9	=9	=9
*>Letter>A	*>Letter>A	*>Letter>A	*>Letter>A	*>Letter>A	*>Letter>A	*>Letter>A	*>Letter>A	*>Letter>A
*>Label>Verse	*>Label>Verse	*>Label>Verse	*>Label>Verse	*>Label>Verse	*>Label>Verse	*>Label>Verse	*>Label>Verse	*>Label>Verse
1IV	C-:maj	.	.	.	19.921	newline	voice	1C- 1e- 1g-
.	.	Out	.	.	.	.	.	.
.	.	from	.	.	.	.	.	.
.	.	the	.	.	.	.	.	.
.	.	ru	.	.	.	.	.	.
=10	=10	=10	=10	=10	=10	=10	=10	=10
1I	G-:maj	_	.	.	22.343	.	voice	1G- 1b- 1dd-
.	.	ins,	.	.	.	.	.	.
.	.	.	.	.	.	.	.	.
.	.	.	.	.	.	.	.	.
=11	=11	=11	=11	=11	=11	=11	=11	=11
1IV	C-:maj	.	.	.	24.765	.	voice	1C- 1e- 1g-
.	.	out	.	.	.	.	.	.
.	.	from	.	.	.	.	.	.
.	.	the	.	.	.	.	.	.
.	.	wreck	.	.	.	.	.	.
=12	=12	=12	=12	=12	=12	=12	=12	=12
1I	G-:maj	_	.	.	27.187	.	voice	1G- 1b- 1dd-
.	.	age,	.	.	.	.	.	.
.	.	_	.	.	.	.	.	.
.	.	_	.	.	.	.	.	.
.	.	.	.	.	.	.	.	.
.	.	.	.	.	.	.	.	.
=13	=13	=13	=13	=13	=13	=13	=13	=13
1v7b	D-:min11/b3	.	.	.	29.61	newline	voice	1d- 1F- 1a- 1cc-
.	.	can't	.	.	.	.	.	.
.	.	make	.	.	.	.	.	.
.	.	the	.	.	.	.	.	.
.	.	same	.	.	.	.	.	.
=14	=14	=14	=14	=14	=14	=14	=14	=14
1I	G-:maj	_	.	.	32.038	.	voice	1G- 1b- 1dd-
.	.	mis-	.	.	.	.	.	.
.	.	-takes	.	.	.	.	.	.
.	.	_	.	.	.	.	.	.
.	.	this	.	.	.	.	.	.
.	.	time	.	A	.	.	.	.
=15	=15	=15	=15	=15	=15	=15	=15	=15
1V	D-:maj	_	.	.	34.466	.	voice	1D- 1f 1a-
=16	=16	=16	=16	=16	=16	=16	=16	=16
1V	D-:maj	.	.	.	36.894	.	voice	1D- 1f 1a-
=17	=17	=17	=17	=17	=17	=17	=17	=17
1IV	C-:maj	.	.	.	39.323	newline	voice	1C- 1e- 1g-
.	.	We	.	.	.	.	.	.
.	.	are	.	.	.	.	.	.
.	.	the	.	.	.	.	.	.
.	.	chil	.	.	.	.	.	.
=18	=18	=18	=18	=18	=18	=18	=18	=18
1I	G-:maj	_	.	.	41.756	.	voice	1G- 1b- 1dd-
.	.	dren,	.	.	.	.	.	.
.	.	.	.	.	.	.	.	.
.	.	.	.	.	.	.	.	.
=19	=19	=19	=19	=19	=19	=19	=19	=19
1IV	C-:maj	.	.	.	44.189	.	voice	1C- 1e- 1g-
.	.	.	.	.	.	.	.	.
.	.	the	.	.	.	.	.	.
.	.	last	.	.	.	.	.	.
.	.	ge-	.	.	.	.	.	.
.	.	-ner-	.	.	.	.	.	.
.	.	_	.	.	.	.	.	.
.	.	-a	.	.	.	.	.	.
=20	=20	=20	=20	=20	=20	=20	=20	=20
1I	G-:maj	_	.	.	46.623	.	voice	1G- 1b- 1dd-
.	.	tion,	.	.	.	.	.	.
.	.	.	.	.	.	.	.	.
.	.	(last	.	.	.	.	.	.
.	.	.	.	.	.	.	.	.
.	.	ge-	.	.	.	.	.	.
.	.	-ner-	.	.	.	.	.	.
=21	=21	=21	=21	=21	=21	=21	=21	=21
1v7b	D-:min11/b3	-a-	.	.	49.056	newline	voice	1d- 1F- 1a- 1cc-
.	.	-tion)	.	.	.	.	.	.
.	.	.	.	.	.	.	.	.
.	.	we	.	.	.	.	.	.
.	.	are	.	.	.	.	.	.
.	.	the	.	.	.	.	.	.
.	.	ones	.	.	.	.	.	.
=22	=22	=22	=22	=22	=22	=22	=22	=22
1I	G-:maj	_	.	.	51.482	.	voice	1G- 1b- 1dd-
.	.	they	.	.	.	.	.	.
.	.	left	.	.	.	.	.	.
.	.	_	.	.	.	.	.	.
.	.	be-	.	.	.	.	.	.
.	.	-hind	.	A	.	.	.	.
=23	=23	=23	=23	=23	=23	=23	=23	=23
1V	D-:maj	_	.	.	53.907	.	voice	1D- 1f 1a-
.	.	.	.	.	.	.	.	.
=24	=24	=24	=24	=24	=24	=24	=24	=24
1V	D-:maj	.	.	.	56.333	.	voice	1D- 1f 1a-
.	.	.	.	.	.	.	.	.
.	.	And	.	.	.	.	.	.
.	.	I	.	.	.	.	.	.
=25	=25	=25	=25	=25	=25	=25	=25	=25
*>Letter>B	*>Letter>B	*>Letter>B	*>Letter>B	*>Letter>B	*>Letter>B	*>Letter>B	*>Letter>B	*>Letter>B
*>Label>Prechorus	*>Label>Prechorus	*>Label>Prechorus	*>Label>Prechorus	*>Label>Prechorus	*>Label>Prechorus	*>Label>Prechorus	*>Label>Prechorus	*>Label>Prechorus
1-VII	F-:maj	won	.	.	58.759	newline	voice	1F- 1a- 1cc-
.	.	_	.	.	.	.	.	.
.	.	der	.	.	.	.	.	.
.	.	when	.	.	.	.	.	.
.	.	we	.	.	.	.	.	.
.	.	_	.	.	.	.	.	.
.	.	_	.	.	.	.	.	.
.	.	.	.	.	.	.	.	.
.	.	are	.	.	.	.	.	.
=26	=26	=26	=26	=26	=26	=26	=26	=26
*M2/4	*M2/4	*	*	*	*M2/4	*M2/4	*M2/4	*
2I	G-:maj	e-	.	.	61.191	.	voice	2G- 2b- 2dd-
.	.	-ver	.	.	.	.	.	.
.	.	gon-	.	.	.	.	.	.
.	.	-na	.	.	.	.	.	.
=27	=27	=27	=27	=27	=27	=27	=27	=27
*M4/4	*M4/4	*	*	*	*M4/4	*M4/4	*M4/4	*
1v7	D-:min9	change,	.	B	62.407	.	voice	1D- 1f- 1a- 1cc-
.	.	change	.	B	.	.	.	.
.	.	_	.	.	.	.	.	.
.	.	_	.	.	.	.	.	.
.	.	_	.	.	.	.	.	.
.	.	.	.	.	.	.	.	.
=28	=28	=28	=28	=28	=28	=28	=28	=28
1v7	D-:min9	.	.	.	64.84	.	voice	1D- 1f- 1a- 1cc-
.	.	.	.	.	.	.	.	.
.	.	Li-	.	.	.	.	.	.
.	.	-ving	.	.	.	.	.	.
=29	=29	=29	=29	=29	=29	=29	=29	=29
1-VII	F-:maj	un	.	.	67.272	newline	voice	1F- 1a- 1cc-
.	.	_	.	.	.	.	.	.
.	.	der	.	.	.	.	.	.
.	.	the	.	.	.	.	.	.
.	.	fear,	.	.	.	.	.	.
.	.	_	.	.	.	.	.	.
.	.	_	.	.	.	.	.	.
.	.	.	.	.	.	.	.	.
.	.	'till	.	.	.	.	.	.
=30	=30	=30	=30	=30	=30	=30	=30	=30
*M2/4	*M2/4	*	*	*	*M2/4	*M2/4	*M2/4	*
2I	G-:maj	no-	.	.	69.703	.	voice	2G- 2b- 2dd-
.	.	-thing	.	.	.	.	.	.
.	.	else	.	.	.	.	.	.
.	.	re-	.	.	.	.	.	.
=31	=31	=31	=31	=31	=31	=31	=31	=31
*M4/4	*M4/4	*	*	*	*M4/4	*M4/4	*M4/4	*
1v7	D-:min9	-mains.	.	B	70.918	.	voice	1D- 1f- 1a- 1cc-
=32	=32	=32	=32	=32	=32	=32	=32	=32
2I	G-:maj	.	.	.	73.348	.	voice	2G- 2b- 2dd-
.	.	We	.	.	.	.	.	.
.	.	don't	.	.	.	.	.	.
4-VIIb	F-:maj/3	need	.	.	74.564	.	voice	4f- 4A- 4cc-
.	.	a-	.	.	.	.	.	.
4I	G-:maj	-no-	.	.	75.171	.	voice	4G- 4b- 4dd-
.	.	-ther	.	.	.	.	.	.
=33	=33	=33	=33	=33	=33	=33	=33	=33
*>Letter>C	*>Letter>C	*>Letter>C	*>Letter>C	*>Letter>C	*>Letter>C	*>Letter>C	*>Letter>C	*>Letter>C
*>Label>Chorus	*>Label>Chorus	*>Label>Chorus	*>Label>Chorus	*>Label>Chorus	*>Label>Chorus	*>Label>Chorus	*>Label>Chorus	*>Label>Chorus
2-VII	F-:maj	he	.	.	75.779	newline	voice	2F- 2a- 2cc-
.	.	ro!	.	C	.	.	.	.
2I	G-:maj	.	.	.	76.991	.	voice	2G- 2b- 2dd-
=34	=34	=34	=34	=34	=34	=34	=34	=34
2I	G-:maj	.	.	.	78.203	.	voice	2G- 2b- 2dd-
.	.	We	.	.	.	.	.	.
.	.	don't	.	.	.	.	.	.
4-VIIb	F-:maj/3	need	.	.	79.415	.	voice	4f- 4A- 4cc-
.	.	to	.	.	.	.	.	.
4I	G-:maj	know	.	.	80.02	.	voice	4G- 4b- 4dd-
.	.	the	.	.	.	.	.	.
=35	=35	=35	=35	=35	=35	=35	=35	=35
2-VII	F-:maj	way	.	.	80.626	.	voice	2F- 2a- 2cc-
.	.	home!	.	C	.	.	.	.
2I	G-:maj	_	.	.	81.838	.	voice	2G- 2b- 2dd-
.	.	_	.	.	.	.	.	.
.	.	.	.	.	.	.	.	.
=36	=36	=36	=36	=36	=36	=36	=36	=36
2Ig	G-:maj/6	.	.	.	83.05	.	voice	2G- 2b- 2dd-
.	.	All	.	.	.	.	.	.
.	.	we	.	.	.	.	.	.
4IVb	C-:maj/3	want	.	.	84.262	.	voice	4c- 4E- 4g-
.	.	is	.	.	.	.	.	.
4Ig	G-:maj/6	life	.	.	84.868	.	voice	4G- 4b- 4dd-
.	.	be-	.	.	.	.	.	.
=37	=37	=37	=37	=37	=37	=37	=37	=37
2-VII	F-:maj	-yond	.	.	85.474	newline	voice	2F- 2a- 2cc-
.	.	_	.	.	.	.	.	.
2I	G-:maj	_	.	.	86.684	.	voice	2G- 2b- 2dd-
.	.	the	.	.	.	.	.	.
.	.	Thun-	.	.	.	.	.	.
.	.	-der-	.	.	.	.	.	.
=38	=38	=38	=38	=38	=38	=38	=38	=38
1v	D-:min	-dome.	.	C	87.894	.	voice	1D- 1f- 1a-
.	.	.	.	.	.	.	.	.
.	.	.	.	.	.	.	.	.
=39	=39	=39	=39	=39	=39	=39	=39	=39
1v	D-:min	.	.	.	90.315	.	voice	1D- 1f- 1a-
=40	=40	=40	=40	=40	=40	=40	=40	=40
*>Letter>A	*>Letter>A	*>Letter>A	*>Letter>A	*>Letter>A	*>Letter>A	*>Letter>A	*>Letter>A	*>Letter>A
*>Label>Verse	*>Label>Verse	*>Label>Verse	*>Label>Verse	*>Label>Verse	*>Label>Verse	*>Label>Verse	*>Label>Verse	*>Label>Verse
1IV	C-:maj	.	.	.	92.735	newline	voice	1C- 1e- 1g-
.	.	Loo-	.	.	.	.	.	.
.	.	-king	.	.	.	.	.	.
.	.	for	.	.	.	.	.	.
.	.	some	.	.	.	.	.	.
=41	=41	=41	=41	=41	=41	=41	=41	=41
1I	G-:maj	_	.	.	95.165	.	voice	1G- 1b- 1dd-
.	.	thing,	.	.	.	.	.	.
.	.	.	.	.	.	.	.	.
.	.	.	.	.	.	.	.	.
=42	=42	=42	=42	=42	=42	=42	=42	=42
1IV	C-:maj	.	.	.	97.595	.	voice	1C- 1e- 1g-
.	.	we	.	.	.	.	.	.
.	.	can	.	.	.	.	.	.
.	.	re-	.	.	.	.	.	.
.	.	-ly	.	.	.	.	.	.
=43	=43	=43	=43	=43	=43	=43	=43	=43
1I	G-:maj	_	.	.	100.025	.	voice	1G- 1b- 1dd-
.	.	on,	.	D	.	.	.	.
.	.	_	.	.	.	.	.	.
.	.	_	.	.	.	.	.	.
.	.	.	.	.	.	.	.	.
.	.	.	.	.	.	.	.	.
=44	=44	=44	=44	=44	=44	=44	=44	=44
1v7b	D-:min11/b3	.	.	.	102.454	newline	voice	1d- 1F- 1a- 1cc-
.	.	.	.	.	.	.	.	.
.	.	There's	.	.	.	.	.	.
.	.	got	.	.	.	.	.	.
.	.	to	.	.	.	.	.	.
.	.	be	.	.	.	.	.	.
.	.	some	.	.	.	.	.	.
=45	=45	=45	=45	=45	=45	=45	=45	=45
1I	G-:maj	_	.	.	104.887	.	voice	1G- 1b- 1dd-
.	.	thing	.	.	.	.	.	.
.	.	bet	.	.	.	.	.	.
.	.	_	.	.	.	.	.	.
.	.	ter	.	.	.	.	.	.
.	.	out	.	.	.	.	.	.
.	.	there	.	E	.	.	.	.
=46	=46	=46	=46	=46	=46	=46	=46	=46
1V	D-:maj	_	.	.	107.32	.	voice	1D- 1f 1a-
=47	=47	=47	=47	=47	=47	=47	=47	=47
1V	D-:maj	.	.	.	109.753	.	voice	1D- 1f 1a-
.	.	.	.	.	.	.	.	.
.	.	Mmm,	.	.	.	.	.	.
.	.	_	.	.	.	.	.	.
=48	=48	=48	=48	=48	=48	=48	=48	=48
1IV	C-:maj	_	.	.	112.186	newline	voice	1C- 1e- 1g-
.	.	love	.	.	.	.	.	.
.	.	and	.	.	.	.	.	.
.	.	com-	.	.	.	.	.	.
.	.	-pas-	.	.	.	.	.	.
=49	=49	=49	=49	=49	=49	=49	=49	=49
1I	G-:maj	-sion,	.	D	114.611	.	voice	1G- 1b- 1dd-
.	.	_	.	.	.	.	.	.
.	.	.	.	.	.	.	.	.
.	.	.	.	.	.	.	.	.
=50	=50	=50	=50	=50	=50	=50	=50	=50
1IV	C-:maj	.	.	.	117.035	.	voice	1C- 1e- 1g-
.	.	their	.	.	.	.	.	.
.	.	day	.	.	.	.	.	.
.	.	is	.	.	.	.	.	.
.	.	_	.	.	.	.	.	.
.	.	Co	.	.	.	.	.	.
=51	=51	=51	=51	=51	=51	=51	=51	=51
1I	G-:maj	_	.	.	119.46	.	voice	1G- 1b- 1dd-
.	.	ming,	.	.	.	.	.	.
.	.	.	.	.	.	.	.	.
.	.	(co	.	.	.	.	.	.
.	.	_	.	.	.	.	.	.
.	.	ming	.	.	.	.	.	.
.	.	)	.	.	.	.	.	.
=52	=52	=52	=52	=52	=52	=52	=52	=52
1v7b	D-:min11/b3	.	.	.	121.885	newline	voice	1d- 1F- 1a- 1cc-
.	.	all	.	.	.	.	.	.
.	.	else	.	.	.	.	.	.
.	.	are	.	.	.	.	.	.
.	.	cast	.	.	.	.	.	.
=53	=53	=53	=53	=53	=53	=53	=53	=53
1I	G-:maj	_	.	.	124.314	.	voice	1G- 1b- 1dd-
.	.	les	.	.	.	.	.	.
.	.	built	.	.	.	.	.	.
.	.	_	.	.	.	.	.	.
.	.	in	.	.	.	.	.	.
.	.	the	.	.	.	.	.	.
.	.	air	.	E	.	.	.	.
=54	=54	=54	=54	=54	=54	=54	=54	=54
1V	D-:maj	_	.	.	126.743	.	voice	1D- 1f 1a-
=55	=55	=55	=55	=55	=55	=55	=55	=55
1V	D-:maj	.	.	.	129.173	.	voice	1D- 1f 1a-
.	.	.	.	.	.	.	.	.
.	.	And	.	.	.	.	.	.
.	.	I	.	.	.	.	.	.
=56	=56	=56	=56	=56	=56	=56	=56	=56
*>Letter>B	*>Letter>B	*>Letter>B	*>Letter>B	*>Letter>B	*>Letter>B	*>Letter>B	*>Letter>B	*>Letter>B
*>Label>Prechorus	*>Label>Prechorus	*>Label>Prechorus	*>Label>Prechorus	*>Label>Prechorus	*>Label>Prechorus	*>Label>Prechorus	*>Label>Prechorus	*>Label>Prechorus
1-VII	F-:maj	won	.	.	131.602	newline	voice	1F- 1a- 1cc-
.	.	_	.	.	.	.	.	.
.	.	der	.	.	.	.	.	.
.	.	when	.	.	.	.	.	.
.	.	we	.	.	.	.	.	.
.	.	_	.	.	.	.	.	.
.	.	_	.	.	.	.	.	.
.	.	.	.	.	.	.	.	.
.	.	are	.	.	.	.	.	.
=57	=57	=57	=57	=57	=57	=57	=57	=57
*M2/4	*M2/4	*	*	*	*M2/4	*M2/4	*M2/4	*
2I	G-:maj	e-	.	.	134.016	.	voice	2G- 2b- 2dd-
.	.	-ver	.	.	.	.	.	.
.	.	gon-	.	.	.	.	.	.
.	.	-na	.	.	.	.	.	.
=58	=58	=58	=58	=58	=58	=58	=58	=58
*M4/4	*M4/4	*	*	*	*M4/4	*M4/4	*M4/4	*
1v7	D-:min9	change,	.	B	135.223	.	voice	1D- 1f- 1a- 1cc-
.	.	change	.	B	.	.	.	.
.	.	_	.	.	.	.	.	.
.	.	_	.	.	.	.	.	.
.	.	_	.	.	.	.	.	.
.	.	.	.	.	.	.	.	.
=59	=59	=59	=59	=59	=59	=59	=59	=59
1v7	D-:min9	.	.	.	137.637	.	voice	1D- 1f- 1a- 1cc-
.	.	.	.	.	.	.	.	.
.	.	Li-	.	.	.	.	.	.
.	.	-ving	.	.	.	.	.	.
=60	=60	=60	=60	=60	=60	=60	=60	=60
1-VII	F-:maj	un	.	.	140.051	newline	voice	1F- 1a- 1cc-
.	.	_	.	.	.	.	.	.
.	.	der	.	.	.	.	.	.
.	.	the	.	.	.	.	.	.
.	.	fear,	.	.	.	.	.	.
.	.	_	.	.	.	.	.	.
.	.	_	.	.	.	.	.	.
.	.	.	.	.	.	.	.	.
.	.	'till	.	.	.	.	.	.
=61	=61	=61	=61	=61	=61	=61	=61	=61
*M2/4	*M2/4	*	*	*	*M2/4	*M2/4	*M2/4	*
2I	G-:maj	no-	.	.	142.488	.	voice	2G- 2b- 2dd-
.	.	-thing	.	.	.	.	.	.
.	.	else	.	.	.	.	.	.
.	.	re-	.	.	.	.	.	.
=62	=62	=62	=62	=62	=62	=62	=62	=62
*M4/4	*M4/4	*	*	*	*M4/4	*M4/4	*M4/4	*
1v7	D-:min9	-mains.	.	B	143.706	.	voice	1D- 1f- 1a- 1cc-
=63	=63	=63	=63	=63	=63	=63	=63	=63
1v7	D-:min9	.	.	.	146.142	.	voice	1D- 1f- 1a- 1cc-
.	.	All	.	.	.	.	.	.
.	.	the	.	.	.	.	.	.
.	.	chil-	.	.	.	.	.	.
.	.	-dren	.	.	.	.	.	.
=64	=64	=64	=64	=64	=64	=64	=64	=64
2I	G-:maj	say,	.	.	148.579	.	voice	2G- 2b- 2dd-
.	.	we	.	.	.	.	.	.
.	.	don't	.	.	.	.	.	.
4-VIIb	F-:maj/3	need	.	.	149.797	.	voice	4f- 4A- 4cc-
.	.	a-	.	.	.	.	.	.
4I	G-:maj	-no-	.	.	150.406	.	voice	4G- 4b- 4dd-
.	.	-ther	.	.	.	.	.	.
=65	=65	=65	=65	=65	=65	=65	=65	=65
*>Letter>C	*>Letter>C	*>Letter>C	*>Letter>C	*>Letter>C	*>Letter>C	*>Letter>C	*>Letter>C	*>Letter>C
*>Label>Chorus	*>Label>Chorus	*>Label>Chorus	*>Label>Chorus	*>Label>Chorus	*>Label>Chorus	*>Label>Chorus	*>Label>Chorus	*>Label>Chorus
2-VII	F-:maj	he-	.	.	151.015	newline	voice	2F- 2a- 2cc-
.	.	-ro!	.	C	.	.	.	.
2I	G-:maj	.	.	.	152.234	.	voice	2G- 2b- 2dd-
=66	=66	=66	=66	=66	=66	=66	=66	=66
2I	G-:maj	.	.	.	153.453	.	voice	2G- 2b- 2dd-
.	.	We	.	.	.	.	.	.
.	.	don't	.	.	.	.	.	.
4-VIIb	F-:maj/3	need	.	.	154.672	.	voice	4f- 4A- 4cc-
.	.	to	.	.	.	.	.	.
4I	G-:maj	know	.	.	155.282	.	voice	4G- 4b- 4dd-
.	.	the	.	.	.	.	.	.
=67	=67	=67	=67	=67	=67	=67	=67	=67
2-VII	F-:maj	way	.	.	155.891	.	voice	2F- 2a- 2cc-
.	.	home!	.	C	.	.	.	.
2I	G-:maj	_	.	.	157.11	.	voice	2G- 2b- 2dd-
.	.	_	.	.	.	.	.	.
.	.	.	.	.	.	.	.	.
=68	=68	=68	=68	=68	=68	=68	=68	=68
2Ig	G-:maj/6	.	.	.	158.329	.	voice	2G- 2b- 2dd-
.	.	All	.	.	.	.	.	.
.	.	we	.	.	.	.	.	.
4IVb	C-:maj/3	want	.	.	159.548	.	voice	4c- 4E- 4g-
.	.	is	.	.	.	.	.	.
4Ig	G-:maj/6	life	.	.	160.158	.	voice	4G- 4b- 4dd-
.	.	be-	.	.	.	.	.	.
=69	=69	=69	=69	=69	=69	=69	=69	=69
2-VII	F-:maj	-yond	.	.	160.767	newline	voice	2F- 2a- 2cc-
.	.	_	.	.	.	.	.	.
2I	G-:maj	_	.	.	161.962	.	voice	2G- 2b- 2dd-
.	.	the	.	.	.	.	.	.
.	.	Thun-	.	.	.	.	.	.
.	.	-der-	.	.	.	.	.	.
=70	=70	=70	=70	=70	=70	=70	=70	=70
2v	D-:min	-dome.	.	C	163.156	.	voice	2D- 2f- 2a-
.	.	.	.	.	.	.	.	.
2IV	C-:maj	.	.	.	164.35	.	voice	2C- 2e- 2g-
=71	=71	=71	=71	=71	=71	=71	=71	=71
*>Letter>D	*>Letter>D	*>Letter>D	*>Letter>D	*>Letter>D	*>Letter>D	*>Letter>D	*>Letter>D	*>Letter>D
*>Label>Bridge	*>Label>Bridge	*>Label>Bridge	*>Label>Bridge	*>Label>Bridge	*>Label>Bridge	*>Label>Bridge	*>Label>Bridge	*>Label>Bridge
1-III	B--:maj	.	.	.	165.545	newline	voice	1B-- 1dd- 1ff-
.	.	.	.	.	.	.	.	.
.	.	So	.	.	.	.	.	.
.	.	what	.	.	.	.	.	.
.	.	do	.	.	.	.	.	.
.	.	_	.	.	.	.	.	.
.	.	we	.	.	.	.	.	.
.	.	do	.	.	.	.	.	.
=72	=72	=72	=72	=72	=72	=72	=72	=72
1I	G-:maj	_	.	.	167.984	.	voice	1G- 1b- 1dd-
.	.	with	.	.	.	.	.	.
.	.	our	.	.	.	.	.	.
.	.	lives?	.	A	.	.	.	.
.	.	_	.	.	.	.	.	.
.	.	_	.	.	.	.	.	.
.	.	.	.	.	.	.	.	.
=73	=73	=73	=73	=73	=73	=73	=73	=73
1-III	B--:maj	.	.	.	170.424	.	voice	1B-- 1dd- 1ff-
.	.	.	.	.	.	.	.	.
.	.	We	.	.	.	.	.	.
.	.	leave	.	.	.	.	.	.
.	.	on-	.	.	.	.	.	.
.	.	-ly	.	.	.	.	.	.
.	.	.	.	.	.	.	.	.
.	.	a	.	.	.	.	.	.
.	.	mark!	.	F	.	.	.	.
=74	=74	=74	=74	=74	=74	=74	=74	=74
1v	D-:min	_	.	.	172.863	.	voice	1D- 1f- 1a-
.	.	_	.	.	.	.	.	.
.	.	_	.	.	.	.	.	.
.	.	_	.	.	.	.	.	.
.	.	.	.	.	.	.	.	.
=75	=75	=75	=75	=75	=75	=75	=75	=75
1-VI	E--:maj	.	.	.	175.302	newline	voice	1E-- 1g- 1b--
.	.	.	.	.	.	.	.	.
.	.	Will	.	.	.	.	.	.
.	.	our	.	.	.	.	.	.
.	.	sto-	.	.	.	.	.	.
.	.	-ry	.	.	.	.	.	.
=76	=76	=76	=76	=76	=76	=76	=76	=76
1-VIId	F-:maj/7	shine	.	.	177.724	.	voice	1f- 1a- 1cc-
.	.	_	.	.	.	.	.	.
.	.	like	.	.	.	.	.	.
.	.	a	.	.	.	.	.	.
.	.	light?	.	A	.	.	.	.
.	.	_	.	.	.	.	.	.
.	.	_	.	.	.	.	.	.
=77	=77	=77	=77	=77	=77	=77	=77	=77
1-VI	E--:maj	.	.	.	180.145	.	voice	1E-- 1g- 1b--
.	.	.	.	.	.	.	.	.
.	.	Or	.	.	.	.	.	.
.	.	end	.	.	.	.	.	.
.	.	in	.	.	.	.	.	.
.	.	the	.	.	.	.	.	.
=78	=78	=78	=78	=78	=78	=78	=78	=78
1-VIIm7	F-:7	dark?	.	F	182.566	.	voice	1F- 1a- 1cc- 1ee-
.	.	.	.	.	.	.	.	.
.	.	Is	.	.	.	.	.	.
.	.	it	.	.	.	.	.	.
.	.	all	.	.	.	.	.	.
.	.	or	.	.	.	.	.	.
.	.	no-	.	.	.	.	.	.
.	.	-thing?	.	.	.	.	.	.
=79	=79	=79	=79	=79	=79	=79	=79	=79
1-VIIm7	F-:7	_	.	.	184.987	.	voice	1F- 1a- 1cc- 1ee-
.	.	_	.	.	.	.	.	.
.	.	Doo-	.	.	.	.	.	.
.	.	-doo-	.	.	.	.	.	.
.	.	-doo-	.	.	.	.	.	.
.	.	-doo-	.	.	.	.	.	.
.	.	-doo-	.	.	.	.	.	.
.	.	-doo-	.	.	.	.	.	.
=80	=80	=80	=80	=80	=80	=80	=80	=80
*>Letter>C	*>Letter>C	*>Letter>C	*>Letter>C	*>Letter>C	*>Letter>C	*>Letter>C	*>Letter>C	*>Letter>C
*>Label>Solo	*>Label>Solo	*>Label>Solo	*>Label>Solo	*>Label>Solo	*>Label>Solo	*>Label>Solo	*>Label>Solo	*>Label>Solo
2-VII	F-:maj	-doo-	.	.	187.408	newline	saxophone	2F- 2a- 2cc-
.	.	-doo...	.	.	.	.	.	.
2I	G-:maj	.	.	.	188.626	.	saxophone	2G- 2b- 2dd-
=81	=81	=81	=81	=81	=81	=81	=81	=81
2I	G-:maj	.	.	.	189.845	.	saxophone	1G- 1b- 1dd-
4-VIIb	F-:maj/3	.	.	.	191.063	.	saxophone	4f- 4A- 4cc-
4I	G-:maj	.	.	.	191.672	.	saxophone	4G- 4b- 4dd-
=82	=82	=82	=82	=82	=82	=82	=82	=82
2-VII	F-:maj	.	.	.	192.281	.	saxophone	1F- 1a- 1cc-
2I	G-:maj	.	.	.	193.499	.	saxophone	2G- 2b- 2dd-
=83	=83	=83	=83	=83	=83	=83	=83	=83
4I	G-:maj	.	.	.	194.717	.	saxophone	1G- 1b- 1dd-
4Ig	G-:maj/6	.	.	.	195.326	.	saxophone	4G- 4b- 4dd-
4IVb	C-:maj/3	.	.	.	195.935	.	saxophone	4c- 4E- 4g-
4Ig	G-:maj/6	.	.	.	196.544	.	saxophone	4G- 4b- 4dd-
=84	=84	=84	=84	=84	=84	=84	=84	=84
2-VII	F-:maj	.	.	.	197.153	newline	saxophone	1F- 1a- 1cc-
2I	G-:maj	.	.	.	198.364	.	saxophone	2G- 2b- 2dd-
=85	=85	=85	=85	=85	=85	=85	=85	=85
2I	G-:maj	.	.	.	199.575	.	saxophone	1G- 1b- 1dd-
4-VIIb	F-:maj/3	.	.	.	200.786	.	saxophone	4f- 4A- 4cc-
4I	G-:maj	.	.	.	201.391	.	saxophone	4G- 4b- 4dd-
=86	=86	=86	=86	=86	=86	=86	=86	=86
2-VII	F-:maj	.	.	.	201.997	.	saxophone	1F- 1a- 1cc-
2I	G-:maj	.	.	.	203.208	.	saxophone	2G- 2b- 2dd-
=87	=87	=87	=87	=87	=87	=87	=87	=87
2I	G-:maj	.	.	.	204.418	.	saxophone	2G- 2b- 2dd-
.	.	We	.	.	.	.	.	.
.	.	don't	.	.	.	.	.	.
4-VIIb	F-:maj/3	need	.	.	205.629	.	saxophone	4f- 4A- 4cc-
.	.	a-	.	.	.	.	.	.
4I	G-:maj	-no-	.	.	206.235	.	saxophone	4G- 4b- 4dd-
.	.	-ther	.	.	.	.	.	.
=88	=88	=88	=88	=88	=88	=88	=88	=88
*>Letter>C	*>Letter>C	*>Letter>C	*>Letter>C	*>Letter>C	*>Letter>C	*>Letter>C	*>Letter>C	*>Letter>C
*>Label>Chorus	*>Label>Chorus	*>Label>Chorus	*>Label>Chorus	*>Label>Chorus	*>Label>Chorus	*>Label>Chorus	*>Label>Chorus	*>Label>Chorus
2-VII	F-:maj	he-	.	.	206.84	newline	voice	2F- 2a- 2cc-
.	.	-ro!	.	C	.	.	.	.
.	.	.	.	.	.	.	.	.
2I	G-:maj	(He-	.	.	208.054	.	voice	2G- 2b- 2dd-
.	.	-ro)	.	.	.	.	.	.
.	.	.	.	.	.	.	.	.
=89	=89	=89	=89	=89	=89	=89	=89	=89
2I	G-:maj	.	.	.	209.268	.	voice	2G- 2b- 2dd-
.	.	We	.	.	.	.	.	.
.	.	don't	.	.	.	.	.	.
4-VIIb	F-:maj/3	need	.	.	210.481	.	voice	4f- 4A- 4cc-
.	.	to	.	.	.	.	.	.
4I	G-:maj	know	.	.	211.088	.	voice	4G- 4b- 4dd-
.	.	the	.	.	.	.	.	.
=90	=90	=90	=90	=90	=90	=90	=90	=90
2-VII	F-:maj	way	.	.	211.695	.	voice	2F- 2a- 2cc-
.	.	home!	.	C	.	.	.	.
2I	G-:maj	_	.	.	212.909	.	voice	2G- 2b- 2dd-
.	.	_	.	.	.	.	.	.
.	.	_	.	.	.	.	.	.
.	.	_	.	.	.	.	.	.
=91	=91	=91	=91	=91	=91	=91	=91	=91
2Ig	G-:maj/6	.	.	.	214.122	.	voice	2G- 2b- 2dd-
.	.	All	.	.	.	.	.	.
.	.	we	.	.	.	.	.	.
4IVb	C-:maj/3	want	.	.	215.336	.	voice	4c- 4E- 4g-
.	.	is	.	.	.	.	.	.
4Ig	G-:maj/6	life	.	.	215.943	.	voice	4G- 4b- 4dd-
.	.	be-	.	.	.	.	.	.
=92	=92	=92	=92	=92	=92	=92	=92	=92
2-VII	F-:maj	-yond	.	.	216.55	newline	voice	2F- 2a- 2cc-
.	.	_	.	.	.	.	.	.
2I	G-:maj	.	.	.	217.768	.	voice	2G- 2b- 2dd-
.	.	Thun-	.	.	.	.	.	.
.	.	-der-	.	.	.	.	.	.
=93	=93	=93	=93	=93	=93	=93	=93	=93
1v	D-:min	-dome!	.	C	218.985	.	voice	1D- 1f- 1a-
.	.	_	.	.	.	.	.	.
.	.	_	.	.	.	.	.	.
.	.	_	.	.	.	.	.	.
.	.	_	.	.	.	.	.	.
.	.	_	.	.	.	.	.	.
=94	=94	=94	=94	=94	=94	=94	=94	=94
1v	D-:min	.	.	.	221.421	.	voice	1D- 1f- 1a-
.	.	All	.	.	.	.	.	.
.	.	the	.	.	.	.	.	.
.	.	chil-	.	.	.	.	.	.
.	.	-dren	.	.	.	.	.	.
=95	=95	=95	=95	=95	=95	=95	=95	=95
2I	G-:maj	say!	.	.	223.857	.	voice	2G- 2b- 2dd-
.	.	.	We	.	.	.	.	.
.	.	.	don't	.	.	.	.	.
4-VIIb	F-:maj/3	.	need	.	225.074	.	voice	4f- 4A- 4cc-
.	.	.	a-	.	.	.	.	.
4I	G-:maj	.	-no-	.	225.683	.	voice	4G- 4b- 4dd-
.	.	.	-ther	.	.	.	.	.
=96	=96	=96	=96	=96	=96	=96	=96	=96
*>Letter>C	*>Letter>C	*>Letter>C	*>Letter>C	*>Letter>C	*>Letter>C	*>Letter>C	*>Letter>C	*>Letter>C
*>Label>Chorus	*>Label>Chorus	*>Label>Chorus	*>Label>Chorus	*>Label>Chorus	*>Label>Chorus	*>Label>Chorus	*>Label>Chorus	*>Label>Chorus
2-VII	F-:maj	.	he-	.	226.292	newline	voice	2F- 2a- 2cc-
.	.	.	-ro!	C	.	.	.	.
2I	G-:maj	.	_	.	227.5	.	voice	2G- 2b- 2dd-
.	.	We	.	.	.	.	.	.
.	.	don't	.	.	.	.	.	.
.	.	need	.	.	.	.	.	.
.	.	a-	.	.	.	.	.	.
.	.	-no-	.	.	.	.	.	.
=97	=97	=97	=97	=97	=97	=97	=97	=97
2I	G-:maj	-ther	.	.	228.708	.	voice	2G- 2b- 2dd-
.	.	he	.	.	.	.	.	.
.	.	_	.	.	.	.	.	.
.	.	ro!	We	C	.	.	.	.
.	.	.	don't	.	.	.	.	.
4-VIIb	F-:maj/3	.	need	.	229.916	.	voice	4f- 4A- 4cc-
.	.	.	to	.	.	.	.	.
4I	G-:maj	.	know	.	230.52	.	voice	4G- 4b- 4dd-
.	.	.	the	.	.	.	.	.
=98	=98	=98	=98	=98	=98	=98	=98	=98
2-VII	F-:maj	.	way	.	231.124	.	voice	2F- 2a- 2cc-
.	.	.	home!	.	.	.	.	.
2I	G-:maj	.	_	.	232.332	.	voice	2G- 2b- 2dd-
.	.	Mmm,	.	.	.	.	.	.
=99	=99	=99	=99	=99	=99	=99	=99	=99
2Ig	G-:maj/6	_	.	.	233.54	.	voice	2G- 2b- 2dd-
.	.	all	All	.	.	.	.	.
.	.	we	we	.	.	.	.	.
4IVb	C-:maj/3	want	want	.	234.748	.	voice	4c- 4E- 4g-
.	.	is	is	.	.	.	.	.
4Ig	G-:maj/6	life	life	.	235.352	.	voice	4G- 4b- 4dd-
.	.	be-	be-	.	.	.	.	.
=100	=100	=100	=100	=100	=100	=100	=100	=100
2-VII	F-:maj	-yond,	-yond	.	235.956	newline	voice	2F- 2a- 2cc-
.	.	_	_	.	.	.	.	.
2I	G-:maj	.	.	.	237.147	.	voice	2G- 2b- 2dd-
.	.	the	.	.	.	.	.	.
.	.	Thun-	.	.	.	.	.	.
.	.	-der-	.	.	.	.	.	.
=101	=101	=101	=101	=101	=101	=101	=101	=101
1v	D-:min	-dome...	.	C	238.338	.	voice	1D- 1f- 1a-
.	.	.	.	.	.	.	.	.
.	.	.	.	.	.	.	.	.
=102	=102	=102	=102	=102	=102	=102	=102	=102
1v	D-:min	.	.	.	240.72	.	voice	1D- 1f- 1a-
=103	=103	=103	=103	=103	=103	=103	=103	=103
*>Label>>Fadeout	*>Label>>Fadeout	*>Label>>Fadeout	*>Label>>Fadeout	*>Label>>Fadeout	*>Label>>Fadeout	*>Label>>Fadeout	*>Label>>Fadeout	*>Label>>Fadeout
1v	D-:min	.	.	.	243.101	newline	synthesizer	1D- 1f- 1a-
=104	=104	=104	=104	=104	=104	=104	=104	=104
1v	D-:min	.	.	.	245.595	.	synthesizer	1D- 1f- 1a-
=105	=105	=105	=105	=105	=105	=105	=105	=105
1v	D-:min	.	.	.	248.088	.	synthesizer	1D- 1f- 1a-
=106	=106	=106	=106	=106	=106	=106	=106	=106
1v	D-:min	.	.	.	250.581	.	synthesizer	1D- 1f- 1a-
1r;	N	.	.	.	253.074	.	r	1r;
1r;	N	.	.	.	255.504	.	r	1r;
*-	*-	*-	*-	*-	*-	*-	*-	*-
!!!BillboardChartDate: 1985/09/07
!!!BillboardPeak: 2
!!!BillboardWeeksOnChart: 18
!!!COC: Tina Turner
!!!ENC: Nathaniel Condit-Schultz
!!!EST: Awating manual error checking and editing.
!!!OTL: We Don't Need Another Hero (Thunderdome)
!!!RDF**harte: Chris Harte's syntax, used by MIREX
!!!RDF**harmony: **recip + pitch class of root + harmonic quality
!!!RDF**leadinstrument: original McGill primary instrumentation annotation
!!!RDF**phrase: newline = linebreak in original McGill transcription
!!!RDF**timestamp: McGill audio timestamp in seconds
!!!RDT: 2017/01/12/
!!!SampleActualRank: 3
!!!SampleID#: 1031
!!!SampleTargetRank: 1
!!!MBID: 360660d0-1d4a-4917-898d-48d49a3d47cb
